X: 326
%
U:~=!turn!
T: The Lasses o' Ballantrae
C:Capt. Fraser
O:Scotland
B:Keith Norman MacDonald : "The Skye collection of the best reels & strathspeys extant" : 1887
Z:Ralph Palmer
R:Reel
M:C
L:1/8
K:F
c | cFAc dfef | cFAF GDDd | cFAc dfef | afce f3 :| f | fcfa gcga | fagf ecce |
fcfa gcga | ((3baf) de f2 fc | fcfa gcga | fagf eccA | Bdfd cAFc | dfeg f2 f |]


